public/icons/XD.svg

<svg width="256" height="256" viewBox="0 0 256 256" fill="none" xmlns="http://www.w3.org/2000/svg">
<rect width="256" height="256" rx="60" fill="#470137"/>
<path d="M134.239 80.2153L104.239 129.715L136.239 182.215C136.439 182.615 136.539 183.015 136.439 183.415C136.339 183.815 135.939 183.515 135.339 183.615H112.439C110.839 183.615 109.739 183.515 109.039 182.515C106.939 178.315 104.739 174.215 102.639 170.015C100.539 165.915 98.2392 161.715 95.8392 157.415C93.4392 153.115 91.0392 148.815 88.6392 144.415H88.4392C86.3392 148.715 84.0392 153.015 81.7392 157.315C79.4392 161.615 77.1392 165.915 74.9392 170.115C72.6392 174.315 70.3392 178.615 68.0392 182.715C67.6392 183.715 66.8392 183.815 65.7392 183.815H43.7392C43.3392 183.815 43.0392 184.015 43.0392 183.515C42.9392 183.115 43.0392 182.715 43.2392 182.415L74.3392 131.415L44.0392 80.1153C43.7392 79.7153 43.6392 79.3153 43.8392 79.1153C44.0392 78.8153 44.4392 78.7153 44.8392 78.7153H67.5392C68.0392 78.7153 68.5392 78.8153 68.9392 78.9153C69.3392 79.1153 69.6392 79.4153 69.9392 79.8153C71.8392 84.1153 74.0392 88.4153 76.3392 92.7153C78.7392 97.0153 81.0392 101.215 83.5392 105.415C85.9392 109.615 88.1392 113.815 90.2392 118.115H90.4392C92.5392 113.715 94.7392 109.415 96.9392 105.215C99.1392 101.015 101.439 96.8153 103.739 92.6153C106.039 88.4153 108.239 84.1153 110.439 80.0153C110.539 79.6153 110.739 79.2153 111.039 79.0153C111.439 78.8153 111.839 78.7153 112.339 78.8153H133.439C133.939 78.7153 134.439 79.0153 134.539 79.5153C134.639 79.6153 134.439 80.0153 134.239 80.2153Z" fill="#FF61F6"/>
<path d="M180.439 185.716C173.039 185.816 165.639 184.316 158.939 181.216C152.639 178.316 147.439 173.516 143.839 167.616C140.139 161.516 138.339 153.916 138.339 144.816C138.239 137.416 140.139 130.116 143.839 123.716C147.639 117.216 153.139 111.816 159.739 108.216C166.739 104.316 175.139 102.416 185.039 102.416C185.539 102.416 186.239 102.416 187.139 102.516C188.039 102.616 189.039 102.616 190.239 102.716V71.1155C190.239 70.4155 190.539 70.0155 191.239 70.0155H211.539C212.039 69.9155 212.439 70.3155 212.539 70.7155C212.539 70.8155 212.539 70.9155 212.539 70.9155V166.116C212.539 167.916 212.639 169.916 212.739 172.116C212.939 174.216 213.039 176.216 213.139 177.916C213.139 178.616 212.839 179.216 212.139 179.516C206.939 181.716 201.439 183.316 195.839 184.316C190.739 185.216 185.639 185.716 180.439 185.716ZM190.239 165.716V121.716C189.339 121.516 188.439 121.316 187.539 121.216C186.439 121.116 185.339 121.016 184.239 121.016C180.339 121.016 176.439 121.816 172.939 123.616C169.539 125.316 166.639 127.816 164.439 131.016C162.239 134.216 161.139 138.516 161.139 143.716C161.039 147.216 161.639 150.716 162.839 154.016C163.839 156.716 165.339 159.116 167.339 161.116C169.239 162.916 171.539 164.316 174.139 165.116C176.839 166.016 179.639 166.416 182.439 166.416C183.939 166.416 185.339 166.316 186.639 166.216C187.939 166.316 189.039 166.116 190.239 165.716Z" fill="#FF61F6"/>
</svg>

<svg xmlns="http://www.w3.org/2000/svg" width="256" height="256" fill="none"><rect width="256" height="256" fill="#470137" rx="60"/><path fill="#FF61F6" d="m134.239 80.215-30 49.5 32 52.5c.2.4.3.8.2 1.2s-.5.1-1.1.2h-22.9c-1.6 0-2.7-.1-3.4-1.1-2.1-4.2-4.3-8.3-6.4-12.5-2.1-4.1-4.4-8.3-6.8-12.6s-4.8-8.6-7.2-13h-.2c-2.1 4.3-4.4 8.6-6.7 12.9s-4.6 8.6-6.8 12.8c-2.3 4.2-4.6 8.5-6.9 12.6-.4 1-1.2 1.1-2.3 1.1h-22c-.4 0-.7.2-.7-.3-.1-.4 0-.8.2-1.1l31.1-51-30.3-51.3c-.3-.4-.4-.8-.2-1 .2-.3.6-.4 1-.4h22.7c.5 0 1 .1 1.4.2.4.2.7.5 1 .9 1.9 4.3 4.1 8.6 6.4 12.9 2.4 4.3 4.7 8.5 7.2 12.7 2.4 4.2 4.6 8.4 6.7 12.7h.2c2.1-4.4 4.3-8.7 6.5-12.9s4.5-8.4 6.8-12.6 4.5-8.5 6.7-12.6c.1-.4.3-.8.6-1 .4-.2.8-.3 1.3-.2h21.1c.5-.1 1 .2 1.1.7.1.1-.1.5-.3.7M180.439 185.716c-7.4.1-14.8-1.4-21.5-4.5-6.3-2.9-11.5-7.7-15.1-13.6-3.7-6.1-5.5-13.7-5.5-22.8-.1-7.4 1.8-14.7 5.5-21.1 3.8-6.5 9.3-11.9 15.9-15.5 7-3.9 15.4-5.8 25.3-5.8.5 0 1.2 0 2.1.1s1.9.1 3.1.2v-31.6c0-.7.3-1.1 1-1.1h20.3c.5-.1.9.3 1 .7v95.4c0 1.8.1 3.8.2 6 .2 2.1.3 4.1.4 5.8 0 .7-.3 1.3-1 1.6-5.2 2.2-10.7 3.8-16.3 4.8-5.1.9-10.2 1.4-15.4 1.4m9.8-20v-44c-.9-.2-1.8-.4-2.7-.5-1.1-.1-2.2-.2-3.3-.2-3.9 0-7.8.8-11.3 2.6-3.4 1.7-6.3 4.2-8.5 7.4s-3.3 7.5-3.3 12.7c-.1 3.5.5 7 1.7 10.3 1 2.7 2.5 5.1 4.5 7.1 1.9 1.8 4.2 3.2 6.8 4 2.7.9 5.5 1.3 8.3 1.3 1.5 0 2.9-.1 4.2-.2 1.3.1 2.4-.1 3.6-.5"/></svg>
